assets/Stop button/Flat/stop_button_flat.svg

<svg width="32" height="32" viewBox="0 0 32 32" fill="none" xmlns="http://www.w3.org/2000/svg">
<path d="M2 6C2 3.79086 3.79086 2 6 2H26C28.2091 2 30 3.79086 30 6V26C30 28.2091 28.2091 30 26 30H6C3.79086 30 2 28.2091 2 26V6Z" fill="#00A6ED"/>
<path d="M8 9.5C8 8.67157 8.67157 8 9.5 8H22.5C23.3284 8 24 8.67157 24 9.5V22.5C24 23.3284 23.3284 24 22.5 24H9.5C8.67157 24 8 23.3284 8 22.5V9.5Z" fill="white"/>
</svg>

<svg xmlns="http://www.w3.org/2000/svg" width="32" height="32" fill="none"><path fill="#00A6ED" d="M2 6a4 4 0 0 1 4-4h20a4 4 0 0 1 4 4v20a4 4 0 0 1-4 4H6a4 4 0 0 1-4-4V6Z"/><path fill="#fff" d="M8 9.5A1.5 1.5 0 0 1 9.5 8h13A1.5 1.5 0 0 1 24 9.5v13a1.5 1.5 0 0 1-1.5 1.5h-13A1.5 1.5 0 0 1 8 22.5v-13Z"/></svg>
